X:1
T:Old Joe Clark
M:4/4
R:Reel
K:D
A2B2=c2B2| ABAG F4 | A2B2=c2 B2 | A8 |
A2B2=c2B2| ABAG F4 | FEDF ED =C2 | D8:|
D2 DE FEFG | ABAG FE D2 | D2 DE FE D2 | =C8|
D2 DE FEFG | ABAG FE D2 |FEDF ED =C2 | D8:|
